X:30
T:Bransle sont des Pois
T:Pease Bransle
N:arr. Steven Hendricks. Matches Pile 46
C:Adrian Le Roy, Breve et facile instruction, 1565
M:C
L:1/8
K:G major
"G"G2A2 B2c2 | d4 d2"C"e2 | "D"d2c2 B2A2 | "G"B4 B2G2 | \
G3A BABc | d4 d2"C"e2 | "D"d2c2 B2A2 | "G"B8 |
"G"G2"D"A2 F4 | "Am"ABc2 "G"B2G2 | "G"G2"D"A2 F2"Am"c2 | "G"B2"D"d2 "G"B4 | \
"G"G2"D"A2 F4 | "Am"ABc2 "G"B2G2 | "G"G2"D"A2 F2"Am"c2 | "G"B2"D"d2 "G"B2G2 |]

